!!!COM: Music21
!!!OTL: strathspey_Sir-Archibald-Dunbar
!!!OMV: strathspey_Sir-Archibald-Dunbar
**kern
*clefG2
*k[f#]
*M4/4
=1
4d
8.f#L
16dJk
8.gL
16eJk
8.cL
16eJk
=
16dLL
16d
16d
16dJJ
8.f#L
16dJk
8.aL
16dJk
8.f#L
16dJk
=
16aKL
8.dJ
8.f#L
16dJk
8.gL
16eJk
8.cL
16eJk
=
8.dL
16ddJk
8.aL
16f#Jk
4d
12aL
12b
12cc#XJ
!!linebreak:original
=
8.ddL
16aJk
16f#KL
8.aJ
8.gL
16eJk
8.cL
16eJk
=
16dLL
16d
16d
16dJJ
8.f#L
16dJk
8.aL
16dJk
8.f#L
16dJk
=
16aKL
8.dJ
8.f#L
16dJk
8.gL
16eJk
8.cL
16eJk
=
8.dL
16ddJk
8.aL
16f#Jk
4d
16dKL
8.aJ
!!linebreak:original
=
4dd
8.ff#L
16ddJk
8.ggL
16eeJk
8.ccL
16eeJk
=
16ddLL
16dd
16dd
16ddJJ
8.ff#L
16ddJk
8.aaL
16ddJk
8.ff#L
16ddJk
=
8.eeL
16ddJk
8.eeL
16ff#Jk
8.ggL
16aaJk
12ggL
12ff#
12eeJ
=
16ddKL
8.bJ
8.aL
16f#Jk
16f#KL
8.aJ
16aKL
8.bJ
!!linebreak:original
=
4dd
8.ff#L
16ddJk
8.ggL
16eeJk
8.cc#XL
16aJk
=
16ddLL
16dd
16dd
16ddJJ
8.ff#L
16ddJk
8.aaL
16ddJk
8.ff#L
16ddJk
=
8.eeL
16ddJk
8.eeL
16ff#Jk
8.ggL
16aaJk
12ggL
12ff#
12eeJ
=
16ddKL
8.bJ
8.aL
16f#Jk
16f#KL
8.aJ
12aL
12b
12cc#XJ
=
*-
